build/assets/images/svg/icons/load.svg

<svg width="21" height="20" viewBox="0 0 21 20" fill="none" xmlns="http://www.w3.org/2000/svg">
<path fill-rule="evenodd" clip-rule="evenodd" d="M4 13.75C4 13.1977 3.55228 12.75 3 12.75C2.44772 12.75 2 13.1977 2 13.75L2 14.5C2 16.7091 3.79086 18.5 6 18.5L15 18.5C17.2091 18.5 19 16.7091 19 14.5L19 13.75C19 13.1977 18.5523 12.75 18 12.75C17.4477 12.75 17 13.1977 17 13.75L17 14.5C17 15.6046 16.1046 16.5 15 16.5L6 16.5C4.89543 16.5 4 15.6046 4 14.5L4 13.75ZM11.2071 14.0404C11.0196 14.228 10.7652 14.3333 10.5 14.3333C10.2348 14.3333 9.98043 14.228 9.79289 14.0404L6.45956 10.7071C6.06903 10.3166 6.06903 9.68342 6.45956 9.29289C6.85008 8.90237 7.48325 8.90237 7.87377 9.29289L9.5 10.9191L9.5 1.66666C9.5 1.11438 9.94771 0.666665 10.5 0.666665C11.0523 0.666665 11.5 1.11438 11.5 1.66666L11.5 10.9191L13.1262 9.29289C13.5167 8.90237 14.1499 8.90237 14.5404 9.29289C14.931 9.68342 14.931 10.3166 14.5404 10.7071L11.2071 14.0404Z" fill="#203686"/>
</svg>

<svg width="21" height="20" fill="none" xmlns="http://www.w3.org/2000/svg"><path fill-rule="evenodd" clip-rule="evenodd" d="M4 13.75a1 1 0 10-2 0v.75a4 4 0 004 4h9a4 4 0 004-4v-.75a1 1 0 10-2 0v.75a2 2 0 01-2 2H6a2 2 0 01-2-2v-.75zm7.207.29a1 1 0 01-1.414 0L6.46 10.707a1 1 0 111.414-1.414L9.5 10.919V1.667a1 1 0 012 0v9.252l1.626-1.626a1 1 0 111.414 1.414l-3.333 3.333z" fill="#203686"/></svg>
